images/icons/venmo.svg

<svg fill="none" height="24" viewBox="0 0 24 24" width="24" xmlns="http://www.w3.org/2000/svg"><path d="m21.761 0c.8542 1.44448 1.2831 3.11027 1.2354 4.79776 0 5.98324-4.9907 13.75024-9.0358 19.20224h-9.25445l-3.70615-22.69152 8.0956-.782851 1.9679 16.143571c1.8257-3.0532 4.0888-7.85653 4.0888-11.12773 0-1.78937-.3007-3.00839-.7653-4.01491z" fill="#fff"/></svg>

<svg width="24" height="24" viewBox="0 0 24 24" fill="none" xmlns="http://www.w3.org/2000/svg">
<path d="M21.761 0C22.6152 1.44448 23.0441 3.11027 22.9964 4.79776C22.9964 10.781 18.0057 18.548 13.9606 24H4.70615L1 1.30848L9.0956 0.525629L11.0635 16.6692C12.8892 13.616 15.1523 8.81267 15.1523 5.54147C15.1523 3.7521 14.8516 2.53308 14.387 1.52656L21.761 0Z" fill="white"/>
</svg>
